X:9
T:Flowers of Edinburgh,The. JBs.009
S:Jas.Blackshaw MS, 1837, N.Shropshire
N:Blackshawâ€™s first attempt at this tune is very odd, it appears in a
N:more successful version later..T.W. Nevertheless there are some
N:interesting bits..CGP.
A:North Shropshire
Z:Tony Weatherall 2006
M:4/4
L:1/8
K:G
F|â€uneditedâ€D2EF2GA|BGBd cBAG|F3E DEFG|AFdF E3F|!
DEFD GFGA|(3BAG (3Bcd (3gab|A2A>AA3:|!
|:AB/c/|d2df g>fd>A|B2G>GG2e>f|g2g>fe2d2|c2A>AA2A/B/c/|!
d>cd>c d>cd>f|e>dc>BA2g2|d2cd|edef g2g2|dBAG GFGA|B2G2G2|]

